X: 16875
T: Hats Off To Dodd
R: slip jig
M: 9/8
K: Gminor
D2G GFD G2F|D2G GFD Bcd|c2A AGF CDF|D2G GFD G2F|
D2G GFD G2F|D2G GFD Bcd|c2A AGF CDF|D2G B2A G2F|
G3 GFG Bcd|c3 cBc d2g|f2d dcB Bcd|cAF AGF G2F|
G3 GFG Bcd|c3 cBc d2g|f2d dcB Bcd|cAF AGF G3||

